X:72
T:Double Figure Eight
R:polka 32
Z:P J Headford
M:2/4
L:1/8
Q:1/4=180
K:D
|:A2|d2A2 F2A2|B2e2 dcBA|d2f2 agfe|d2f2 agfe|
d2A2 F2A2|B2e2 dcBA|d2f2 agfe|d2c2 d2:|]
|:ef|gfed cdef|gfed cBA2|g2g2 gfed|cBA2 A2Bc|
d2A2 F2A2|B2e2d cBA|d2f2 agfe|d2c2 d2:|]

